assets/svg/1f48c.svg

<svg xmlns="http://www.w3.org/2000/svg" viewBox="0 0 64 64" enable-background="new 0 0 64 64"><g fill="#c4ced6"><path d="m2.561 46.971l17.188-17.12-13.233-18.16c-.634.793-1.101 1.887-1.234 3.09l-3.243 29.02c-.133 1.193.079 2.316.522 3.166"/><path d="m60.19 8.605l-24.852 22.09 19.585 25.303c1.072-.861 1.847-2.211 2.028-3.838l4.414-39.518c.183-1.638-.293-3.07-1.175-4.04"/></g><path fill="#dae4ea" d="m35.34 30.697l24.852-22.09c-.79-.867-1.897-1.365-3.181-1.285l-48.46 3.133c-.744.049-1.457.523-2.032 1.24l13.232 18.16-17.19 17.12c.409.783 1.014 1.34 1.744 1.473l47.17 8.49c1.261.229 2.478-.148 3.455-.934l-19.585-25.303"/><path fill="#f46767" d="m39.33 22.84c-1.694-8.926-10.39-4.813-11.589-.574-.486-4.49-7.366-7.576-10.337.332-3.225 8.578 7.438 17.588 8.172 19.05 1.017-.981 15.634-8.915 13.754-18.809"/></svg>

<svg xmlns="http://www.w3.org/2000/svg" width="64" height="64" viewBox="0 0 64 64"><path fill="#C4CED6" d="M2.561 46.971l17.188-17.117L6.516 11.693c-.634.793-1.101 1.887-1.234 3.09L2.039 43.805c-.133 1.193.079 2.316.522 3.166zM60.193 8.605L35.341 30.697 54.926 56c1.072-.861 1.847-2.211 2.028-3.838l4.414-39.518c.183-1.638-.293-3.07-1.175-4.039z"/><path fill="#DAE4EA" d="M62 7h-.001zM35.341 30.697L60.193 8.605a3.888 3.888 0 0 0-3.181-1.285L8.548 10.453c-.744.049-1.457.523-2.032 1.24l13.232 18.16L2.561 46.971c.409.783 1.014 1.34 1.744 1.473l47.166 8.49c1.261.229 2.478-.148 3.455-.934L35.341 30.697z"/><path fill="#F46767" d="M39.333 22.84c-1.694-8.926-10.39-4.813-11.589-.574-.486-4.49-7.366-7.576-10.337.332-3.225 8.578 7.438 17.588 8.172 19.051 1.017-.981 15.634-8.915 13.754-18.809z"/></svg>
